src/places/22/folder-crash.svg

<svg version="1.1" viewBox="0 0 22 22" xmlns="http://www.w3.org/2000/svg">
 <defs>
  <style id="current-color-scheme" type="text/css">.ColorScheme-Text {
        color:#232629;
      }</style>
 </defs>
 <path d="m5 3c-1.108 0-2 0.892-2 2v12c0 1.108 0.892 2 2 2h12c1.108 0 2-0.892 2-2v-12c0-1.108-0.892-2-2-2h-12zm0 1h12c0.554 0 1 0.446 1 1v12c0 0.554-0.446 1-1 1h-12c-0.554 0-1-0.446-1-1v-12c0-0.554 0.446-1 1-1zm0 1v1h1v-1h-1zm1 1v2h2v-2h-2zm2 0h1v-1h-1v1zm0 2v1h1v-1h-1zm-2 0h-1v1h1v-1zm7-3v1h1v-1h-1zm1 1v2h2v-2h-2zm2 0h1v-1h-1v1zm0 2v1h1v-1h-1zm-2 0h-1v1h1v-1zm-5 3v2h4v-2h-4zm4 2v2h2v-2h-2zm2 2v2h2v-2h-2zm-6-2h-2v2h2v-2zm-2 2h-2v2h2v-2z" fill="#eb0a42"/>
</svg>

<svg xmlns="http://www.w3.org/2000/svg" viewBox="0 0 22 22">
  <defs id="defs3051">
    <style type="text/css" id="current-color-scheme">
      .ColorScheme-Text {
        color:#232629;
      }
      </style>
  </defs>
    <path
       style="fill:#eb0a42"
       d="M 3 3 L 3 19 L 4 19 L 19 19 L 19 18 L 19 3 L 18 3 L 4 3 L 3 3 z M 4 4 L 18 4 L 18 18 L 4 18 L 4 4 z M 5 5 L 5 6 L 6 6 L 6 5 L 5 5 z M 6 6 L 6 8 L 8 8 L 8 6 L 6 6 z M 8 6 L 9 6 L 9 5 L 8 5 L 8 6 z M 8 8 L 8 9 L 9 9 L 9 8 L 8 8 z M 6 8 L 5 8 L 5 9 L 6 9 L 6 8 z M 13 5 L 13 6 L 14 6 L 14 5 L 13 5 z M 14 6 L 14 8 L 16 8 L 16 6 L 14 6 z M 16 6 L 17 6 L 17 5 L 16 5 L 16 6 z M 16 8 L 16 9 L 17 9 L 17 8 L 16 8 z M 14 8 L 13 8 L 13 9 L 14 9 L 14 8 z M 9 11 L 9 13 L 13 13 L 13 11 L 9 11 z M 13 13 L 13 15 L 15 15 L 15 13 L 13 13 z M 15 15 L 15 17 L 17 17 L 17 15 L 15 15 z M 9 13 L 7 13 L 7 15 L 9 15 L 9 13 z M 7 15 L 5 15 L 5 17 L 7 17 L 7 15 z "
       />
</svg>
